Obsidian-SemiLight/actions/24s/format-text-color.svg

<svg viewBox="0 0 24 24" xmlns="http://www.w3.org/2000/svg"><path d="m18.5 5c-.486455 1.7025-1.6782 3.1660906-2.203125 4.3378906-.1837.3484-.296875.7394094-.296875 1.1621094 0 1.385 1.115 2.5 2.5 2.5s2.5-1.115 2.5-2.5c0-.4227-.113175-.8137094-.296875-1.1621094-.524925-1.1718-1.716675-2.6353906-2.203125-4.3378906zm-13.5 4v2h4v10h2v-10h4v-2z" fill="#4d4d4d"/></svg>

<svg xmlns="http://www.w3.org/2000/svg" viewBox="0 0 24 24">
  <defs id="defs3051">
    <style type="text/css" id="current-color-scheme">
      .ColorScheme-Text {
        color:#4d4d4d;
      }
      </style>
  </defs>
 <path style="fill:currentColor;fill-opacity:1;stroke:none" 
     d="M 18.5 5 C 18.013545 6.7025 16.8218 8.1660906 16.296875 9.3378906 C 16.113175 9.6862906 16 10.0773 16 10.5 C 16 11.885 17.115 13 18.5 13 C 19.885 13 21 11.885 21 10.5 C 21 10.0773 20.886825 9.6862906 20.703125 9.3378906 C 20.1782 8.1660906 18.98645 6.7025 18.5 5 z M 5 9 L 5 11 L 9 11 L 9 21 L 11 21 L 11 11 L 15 11 L 15 9 L 5 9 z "
     class="ColorScheme-Text"
     />
</svg>
